X: 154
T: Shan dan zi liu ma The horse of deep violet like sandalwood colour
%%abc-version 2.0
%%abcx-abcm2ps-target-version 5.9.1 (29 Sep 2008)
%%abc-creator hum2abc beta
%%abcx-conversion-date 2013/10/02 07:44:27
%%abc-edited-by Helmut Schaffrath
%%humdrum-veritas 465906012
%%humdrum-veritas-data 2052806344
%%continueall 1
%%barnumbers 0
L: 1/8
M: 2/4
K: C
A A A E/ G/ [I:setbarnb 1]| 
A2A E/ G/ | 
A4 | 
A/ c/ C D E | 
D2E A | 
A,4 | 
A A/ G/ A A | 
d2e/ g/ e | 
d4 | 
e E E G | 
A2d c/ e/ | 
A4 |]  



